src/img/icons/envelope.svg

<svg fill="none" height="18" viewBox="0 0 24 18" width="24" xmlns="http://www.w3.org/2000/svg"><path d="m21.75 0c1.2188 0 2.25 1.03125 2.25 2.25 0 .75-.375 1.40625-.9375 1.82812l-10.1719 7.64068c-.5625.4218-1.2656.4218-1.8281 0l-10.171875-7.64068c-.5625-.42187-.890625-1.07812-.890625-1.82812 0-1.21875.984375-2.25 2.25-2.25zm-11.5781 12.9375c1.0781.7969 2.5312.7969 3.6093 0l10.2188-7.6875v9.75c0 1.6875-1.3594 3-3 3h-18c-1.6875 0-3-1.3125-3-3v-9.75z" fill="#454545"/></svg>

<svg width="24" height="18" viewBox="0 0 24 18" fill="none" xmlns="http://www.w3.org/2000/svg">
<path d="M21.75 0C22.9688 0 24 1.03125 24 2.25C24 3 23.625 3.65625 23.0625 4.07812L12.8906 11.7188C12.3281 12.1406 11.625 12.1406 11.0625 11.7188L0.890625 4.07812C0.328125 3.65625 0 3 0 2.25C0 1.03125 0.984375 0 2.25 0H21.75ZM10.1719 12.9375C11.25 13.7344 12.7031 13.7344 13.7812 12.9375L24 5.25V15C24 16.6875 22.6406 18 21 18H3C1.3125 18 0 16.6875 0 15V5.25L10.1719 12.9375Z" fill="#454545"/>
</svg>
